X:1
T:On the Far Off Shore
T:On the Far Off Shore
T:W. T. Porter
T:C. Ernest Fahnestock, 1874
T:Public Domain Courtesy of the Cyber Hymnal™
T:Public Domain Courtesy of the Cyber Hymnal™
C:W. T. Porter
Z:Public Domain
Z:Courtesy of the Cyber Hymnal™
%%score ( 1 2 ) ( 3 4 )
L:1/8
Q:1/4=100
M:4/4
K:A
V:1 treble 
V:2 treble 
V:3 bass 
V:4 bass 
V:1
 E3 A cc c>B | B A4 z3 | A3 G AG A>F | E6 z2 | E3 A cc c>B | B A4 z3 | G3 B cB c>^d | e6 z2 | %8
w: 1.~On the far off shore they’ll|greet us,|Forms that we have loved be-|fore;|In their spot- less robes they’ll|meet us,|Sing- ing wel- come, ev- er-|more!|
w: 2.~There, per- chance, a saint- ed|mo- ther,|Sings the songs we loved of|old,|As she leads an an- gel|bro- ther,|Sweet- est lamb of all the|fold;|
w: 3.~Where the wa- ters bright- ly|spar- kle,|In the gold- en ci- ty’s|light,|Will no sha- dow ev- er|dar- kle,|And no chang- ing sea- sons|blight;|
w: 4.~There, be- side that balm- y|ri- ver,|Sor- row, toil and pain shall|cease,|And our hearts shall rest for-|ev- er|’Neath the can- o- py of|peace.|
 B3 B cBAG | B A4 z3 | F3 A GB A>F | E6 z2 | c3 d eedc | B F4 z3 | E3 A cc c>B | A6 z2 || %16
w: There, a ser- aph band, they|wan- der,|Where the pas- tures green un-|fold;|And the crys- tal streams me-|an- der,|O- ver sands of shin- ing|gold.|
w: Or a sis- ter long de-|part- ed,|With a glo- ry on her|face,|Sends to us, the wea- ry|hear- ted,|Mes- sag- es of love and|grace.|
w: Trees of fade- less beau- ty|qui- ver|Where the blos- soms kiss the|tide,|As a- long the shin- ing|ri- ver|Songs of wel- come sweet- ly|glide.|
w: Glad, in- deed will be the|meet- ing,|On that far off, bliss- ful|shore,|When the Sav- ior’s ten- der|greet- ing|Bids us wel- come, ev- er-|more.|
"^Refrain" [DB]3 [DB] [DB][CA] [DB]>[Ec] | [DB] [CA]6 z | [FA]3 [Fd] [Fd][FA] [FA]>[FB] | %19
w: |||
w: On the far off shore they’ll|meet us,|Forms that we have loved be-|
w: |||
w: |||
 [Ec]6 z2 | [Ac]3 [Bd] [ce][ce][Bd][Ac] | [FB] [DF]6 z | E [CA]3 [Ec][Ec] [Ec]>[DB] | [CA]6 z2 |] %24
w: |||||
w: fore;|And with songs of wel- come|greet us,|Wel- come! wel- come! ev- er-|more.|
w: |||||
w: |||||
V:2
 x8 | x8 | x8 | x8 | x8 | x8 | x8 | x8 | x8 | x8 | x8 | x8 | x8 | x8 | x8 | x8 || x8 | x8 | x8 | %19
 x8 | x8 | x8 | E x7 | x8 |] %24
V:3
 [A,,A,]2 z2 [E,,E,]2 z2 | [A,,A,]2 z2 [A,,A,]2 z2 | [D,A,]2 z2 [D,A,]2 z2 | %3
 [A,,A,]2 z2 [A,,A,]2 z2 | [A,,A,]2 z2 [E,,E,]2 z2 | [A,,A,]2 z2 [A,,A,]2 z2 | B,,4 B,,4 | E,6 z2 | %8
 [E,,E,]2 z2 [E,,E,]2 z2 | [A,,A,]2 z2 [A,,A,]2 z2 | [D,A,]2 z2 [D,A,]2 z2 | %11
 [A,,A,]2 z2 [A,,A,]2 z2 | [A,,A,]2 z2 [A,,A,]2 z2 | [D,A,]2 z2 [D,A,]2 z2 | %14
 [E,A,]2 z2 [E,,E,]2 z2 | [A,,A,]6 z2 || E,3 E, E,E, E,>E, | [A,,E,] [A,,A,]6 z | %18
 [D,A,]3 [D,A,] [D,A,][D,D] [D,D]>[D,A,] | [A,,A,]6 z2 | %20
 [A,,A,]3 [A,,A,] [A,,A,][^A,,=G,][B,,F,][C,E,] | [D,F,] [D,B,]6 z | [E,C] [E,A,]3 E,E, E,>[E,G,] | %23
 [A,,A,]6 z2 |] %24
V:4
 x8 | x8 | x8 | x8 | x8 | x8 | x8 | x8 | x8 | x8 | x8 | x8 | x8 | x8 | x8 | x8 || %16
 E,3 E, E,E, E,>E, | x8 | x8 | x8 | x8 | x8 | x4 E,E, E,3/2 x/ | x8 |] %24

